X: 711
T: The Slip
P: Longways for as many as will
%R: march, reel
B: "The Dancing-Master: Containing Directions and Tunes for Dancing" printed by W. Pearson for John Walsh, London ca. 1709
S: 7: DMDfD http://digital.nls.uk/special-collections-of-printed-music/pageturner.cfm?id=89751228 p.69
Z: 2013 John Chambers <jc:trillian.mit.edu>
M: C|
L: 1/4
K: C
% - - - - - - - - - - - - - - - - - - - - - - - - -
[|\
cG cd | e>f ge | ag f/g/e | d>e c2 |][| dd/c/ dG | d>c B/A/G |\
de fg/f/ | e>d d2 | e>f gc | fg aA | Gc Bc | d>c c2 |]
% - - - - - - - - - - - - - - - - - - - - - - - - -
%%begintext align
%% Honour to the presence .| Honour to your own :|
%% ##
%%   The two first men hands, and two first we. hands, and fall back
%%   from each other, men and we. open, close again, and change
%%   places each with his own .| Fall back again, open, close, and
%%   places as before :|
%%endtext
%%sep 1 1 300
%%begintext align
%% First man lead his wo. down half way, and honour to her. Lead her to the bottom and honour to her :|
%% ##
%%   Then take hands with the last man, his wo. taking hands with
%%   the last wo. fall back from each other, open, close, and change
%%   places as before, the four uppermost doing the like at the same
%%   time .| That again as at the first :|
%%endtext
%%sep 1 1 300
%%begintext align
%% Second man lead down his wo. as before :|
%% ##
%%   That as before, the rest following in order.
%% [DMDfD]
%%endtext
%%sep 1 8 500

%%sep 1 1 500
%%sep 1 1 500
